!!!OTL: Ritter und Magd.
!!!OTL-incipit: Es scherzt' ein Graf mit seiner Magd,
!!!ARE: Europa, Mitteleuropa, Deutschland (BRD), Nord - Bayern
!!!YOR: 3, S. 64
!!    ????
!!!SCT: Q0055l
!!!TXL: @@DE
!!!YEM: Copyright 1995, estate of Helmut Schaffrath.
**kern	**text
*ICvox	*
*M6/8	*
*k[b-]	*
*F:	*
!LO:TX:a:t=Auch 126	!
{8cc	Es
=1	=1
4a	ſcherʒt'
8cc	ein
4cc	Graf
8dd	mit
=2	=2
4cc	ſei-
8cc	-ner
4ff}	Magd,
{8cc	ſie
=3	=3
4dd	ſcherʒ-
8ee	-ten
8ffL	mit-
8eeJ	.
8dd	-ein-
=4	=4
4.dd	-an-
4cc}	-der;
{8a	ſie
=5	=5
4b-	ſcherʒ-
8dd	-ten
4cc	man-
8b-	-che
=6	=6
4a	hal-
8ff	-be
4cc}	Nacht,
{8a	das
=7	=7
4g	Mäd-
8dd	-chen
4cc	das
8a	ward
=8	=8
4.g	ſchwan-
4f}	-ger.
==	==
!!!AGN: Ballade, Betrug, Schwangerschaft, Tod, Selbstmord, Herr und Magd
!!!ONB: ESAC (Essen Associative Code) Database: BALLADE
!!!AMT: compound duple
!!!AIN: vox
!!!EED: Helmut Schaffrath
!!!EEV: 1.0
!!!source: Deutsche Volkslieder mit ihren Melodien. Herausgegeben vom Deutschen Volksliedarchiv. Dritter Band Balladen. Berlin 1954.
!!!page: 64
!!!ENC: Anna Maria Matuszewska
!!!EEV: 2025/02/18
*-	*-
